X:16013
T:Pastime With Good Company
R:March
C:Henry VIII, around 1513
O:England
Z:Paul Hardy's Session Tunebook 2015 (see www.paulhardy.net). Creative Commons cc by-nc-sa licenced.
M:4/4
L:1/8
Q:1/4=100
K:Ador
"Am"c3c c3c|"G"B3/2c/2 BA G3G|"Am"c3c "B"B3A|"G"GA "E7"^G/2F/2G "A"A4:|
"Am"A2"G"B2 "C"c3G|"Am"A2"G"B2 "C"c3c|"G"d3/2c/2 BA G3G|"Am"A2"G"B2 "C"c3c|"Am"A2"G"B2"C"c3c|"G"BA "E7"G/2A/2B/2^G/2 "A"A4|]

